X:111
T:South Wind
M:3/4
L:1/8
K:G
d2|"G"B3 A G2|B3 c d2|"D"A3 B A2|A4 dc|"G"B3 A G2|"C"E3 D E2|"G"G4 G2|1
G4:|2 G4 d2
||"Em"g4 g2|"C"g2 f2 e2|"G"d4 d2|"G"d4 c2|B3 A G2|B3 c d2|"D"A4 A2|A4 d2
|"Em"g4 g2|"C"g2 f2 e2|"G"d4 d2|d4 c2|
"G"B3 A G2|"D"A c3 F2|"G"G4 G2|G4||
